X: 1599
T: Ann Of Paisley
R: reel
M: 4/4
K: Cmajor
|:ED|C3 E G2 c2|e3 d c3 B|A2 c2 G2 E2|D6 ED|
C3 E G2 c2|e3 d c3 A|G2 c2 E3 D|C6:|
EF|G3 G c3 d|e2 f2 g3 f|e2 c2 agfe|d6 EF|
G3 G c3 d|e2 a2 g3 f|e3 f e2 d2|c6 EF|
G3 G c3 c|e2 a2 g3 f|e2 c2 agfe|d6 z f|
e3 d c3 B|ABcA G3 E|F2 A2 GFED|C6||

